X:1
T:Preston, 88.88.88
T:Preston, 88.88.88
T:Henry Lascelles Jenner, 1861
T:Public Domain Courtesy of the Cyber Hymnal™
C:Henry Lascelles Jenner, 1861
Z:Public Domain
Z:Courtesy of the Cyber Hymnal™
%%score ( 1 2 ) ( 3 4 )
L:1/8
Q:1/4=110
M:none
K:G
V:1 treble 
V:2 treble 
V:3 bass 
V:4 bass 
V:1
 [DG]2 | [DB]2 [DG]2 [Dc]2 [DB]2 | B2 z [B,G]2 [DG]2 x | [Gd]2 [Ge]2 [Fd]2 [Dc]2 | %4
 B2 z [DA]2 [DB]2 x | [GB]2 [EA]2 [Ad]2 [DB]2 | [^CA]2 [CG]2 [DF]2 [DG]2 | %7
 [Ec]2 [DB]2 [Dd]2 [B,G]2 | [DA]2 [DA]2 [DB]2 D2 | D2 [B,G]2 [CE]2 [B,D]2 | [CE]2 [EG]2 [DG]2 D2 | %11
 [CE]2 D2 [B,G]2 [^CA]2 | B2 z [B,G]4 x |] %13
V:2
 x2 | x8 | D3 (A2 C) x2 | x8 | D3 (G2 ^C) x2 | x8 | x8 | x8 | x6 D2 | D2 x6 | x6 D2 | x2 D2 x4 | %12
 D3 (A2 C) x2 |] %13
V:3
 [G,B,]2 | G,2 [G,B,]2 [F,A,]2 G,2 | [D,F,]2 [D,F,]2 [G,,G,]2 [G,B,]2 | %3
 [B,,D]2 [^C,A,]2 [D,A,]2 G,2 | [E,G,]2 [E,G,]2 [D,F,]2 [G,,D]2 | [G,D]2 [G,^C]2 [F,D]2 [G,D]2 | %6
 A,2 [A,,A,]2 [D,A,]2 [B,,G,]2 | [C,G,]2 G,2 [D,F,]2 [E,G,]2 | [D,G,]2 [D,F,]2 [G,,G,]2 [G,B,]2 | %9
 [F,A,]2 [E,G,]2 [C,G,]2 G,2 | [C,G,]2 [C,C]2 [G,,B,]2 [B,,G,]2 | %11
 [C,G,]2 [B,,G,]2 [E,G,]2 [E,G,]2 | [D,G,]2 [D,F,]2 G,4 |] %13
V:4
 x2 | G,2 x2 G,2 x2 | x8 | x6 G,2 | x8 | x8 | A,2 x6 | x2 G,2 x4 | x8 | x6 G,2 | x8 | x8 | %12
 x4 G,4 |] %13

